svgs/light/bars-filter.svg

<svg xmlns="http://www.w3.org/2000/svg" viewBox="0 0 448 512"><!--! Font Awesome Pro 6.5.1 by @fontawesome - https://fontawesome.com License - https://fontawesome.com/license (Commercial License) Copyright 2023 Fonticons, Inc. --><path d="M0 80c0-8.8 7.2-16 16-16H432c8.8 0 16 7.2 16 16s-7.2 16-16 16H16C7.2 96 0 88.8 0 80zM64 240c0-8.8 7.2-16 16-16H368c8.8 0 16 7.2 16 16s-7.2 16-16 16H80c-8.8 0-16-7.2-16-16zM288 400c0 8.8-7.2 16-16 16H176c-8.8 0-16-7.2-16-16s7.2-16 16-16h96c8.8 0 16 7.2 16 16z"/></svg>

<svg xmlns="http://www.w3.org/2000/svg" viewBox="0 0 448 512"><!--! Font Awesome Pro 6.1.1 by @fontawesome - https://fontawesome.com License - https://fontawesome.com/license (Commercial License) Copyright 2022 Fonticons, Inc. --><path d="M0 80C0 71.16 7.164 64 16 64H432C440.8 64 448 71.16 448 80C448 88.84 440.8 96 432 96H16C7.164 96 0 88.84 0 80zM64 240C64 231.2 71.16 224 80 224H368C376.8 224 384 231.2 384 240C384 248.8 376.8 256 368 256H80C71.16 256 64 248.8 64 240zM272 416H176C167.2 416 160 408.8 160 400C160 391.2 167.2 384 176 384H272C280.8 384 288 391.2 288 400C288 408.8 280.8 416 272 416z"/></svg>
